!!!!SEGMENT: pl-kk--kk-i-7--112_anonim--kyrie-eleison.krn
!!!cenid: 16xx:951
!!!COM: Anonim
!!!COM-rismid: pe30004985
!!!CDT:
!!!CNT:
!!!OTL: Kyrie eleison
!!!PDT:
!!!AGN: Sacred
!!!SMS-siglum: PL-Kk
!!!SMS-shelfmark: Kk.I.7
!!!SMS-shelfwork: 112 W
!!!SMS-variant:
!!!SMS-altvar:
!!!NIFC-rismid: 300258189
!!!URL-scan: http://repozytorium.nifc.pl/skany/pl-kk-nut--i-7
!!!ONB-nifc: UWAGA: C (skan 0083, s.159 ), A (0161, s.143), T(0248, s.159), B(0335, s.155). Następny utwór: Spiritus sancti gratia.
!!!AIN: 1 alto 1 bass 1 soprn 1 tenor
!!!key:
**kern	**text	**text	**text	**kern	**text	**text	**text	**kern	**text	**text	**text	**kern	**text	**text	**text
*part4	*part4	*part4	*part4	*part3	*part3	*part3	*part3	*part2	*part2	*part2	*part2	*part1	*part1	*part1	*part1
*staff4	*staff4	*staff4	*staff4	*staff3	*staff3	*staff3	*staff3	*staff2	*staff2	*staff2	*staff2	*staff1	*staff1	*staff1	*staff1
*	*verse1	*verse2	*verse3	*	*verse1	*verse2	*verse3	*	*verse1	*verse2	*verse3	*	*verse1	*verse2	*verse3
*Ibass	*	*	*	*Itenor	*	*	*	*Ialto	*	*	*	*Isoprn	*	*	*
*I"BASSVS.	*	*	*	*I"TENOR.	*	*	*	*I"ALTVS.	*	*	*	*I"CANTVS.	*	*	*
*I'B	*	*	*	*I'T	*	*	*	*I'A	*	*	*	*I'C	*	*	*
*clefF4	*	*	*	*clefC4	*	*	*	*clefC4	*	*	*	*clefC3	*	*	*
*k[b-]	*	*	*	*k[b-]	*	*	*	*k[b-]	*	*	*	*k[b-]	*	*	*
*g:	*	*	*	*g:	*	*	*	*g:	*	*	*	*g:	*	*	*
*M2/1	*	*	*	*M2/1	*	*	*	*M2/1	*	*	*	*M2/1	*	*	*
*met(C|)	*	*	*	*met(C|)	*	*	*	*met(C|)	*	*	*	*met(C|)	*	*	*
=1-	=1-	=1-	=1-	=1-	=1-	=1-	=1-	=1-	=1-	=1-	=1-	=1-	=1-	=1-	=1-
*2\right	*	*	*	*2\right	*	*	*	*2\right	*	*	*	*2\right	*	*	*
!LO:TX:t=P:bemole:problem=BB-, B-	!	!	!	!	!	!	!	!	!	!	!	!	!	!	!
!LO:TX:t=P:problem= inicjał "K" na pięciolinii przed kluczem	!	!	!	!LO:TX:t=P:problem= inicjał "K" na pięciolinii przed kluczem	!	!	!	!LO:TX:t=P:problem= inicjał "K" na pięciolinii przed kluczem	!	!	!	!LO:TX:t=P:problem= inicjał "K" na pięciolinii przed kluczem	!	!	!
1G	Ky-	.	Chri-	1G	Ky-	.	Chri-	1B-	Ky-	.	Chri-	1d	Ky-	.	Chri-
2F\	-ri-	.	-ste	2A/	-ri-	.	-ste	2c\	-ri-	.	-ste	2f\	-ri-	.	.
!	!	!	!	!LO:TX:t=P:problem=# above	!	!	!	!	!	!	!	!	!	!	!
!	!	!	!	!LO:N:acc=#	!	!	!	!	!	!	!	!	!	!	!
2D/	-e	.	au-	2Bn\	-e	.	au-	2d\	-e	.	ex-	2f\	-e	.	-ſte
=2-	=2-	=2-	=2-	=2-	=2-	=2-	=2-	=2-	=2-	=2-	=2-	=2-	=2-	=2-	=2-
1C	e-	.	.	1.c	e-	.	.	1e-X	e-	.	-au-	1g	e-	.	au-
1G	-lei-	.	-di	.	.	.	.	1d	-lei-	.	-di	1g	-lei-	.	-di
!	!	!	!	!LO:TX:t=P:problem=# above	!	!	!	!	!	!	!	!	!	!	!
!	!	!	!	!LO:N:acc=#	!	!	!	!	!	!	!	!	!	!	!
.	.	.	.	2Bn\	-lei-	.	-di	.	.	.	.	.	.	.	.
=3-	=3-	=3-	=3-	=3-	=3-	=3-	=3-	=3-	=3-	=3-	=3-	=3-	=3-	=3-	=3-
!LO:TX:t=P:problem=kreska pseudotaktowa	!	!	!	!LO:TX:t=P:problem=kreska pseudotaktowa	!	!	!	!LO:TX:t=P:problem=kreska pseudotaktowa	!	!	!	!LO:TX:t=P:problem=kreska pseudotaktowa	!	!	!
1C;>	-son	.	nos	1c;>	-son	.	nos	1c;>	-son	.	nos	1e;>	-ſon	.	nos
1F	Chri-	Ky-	Chri-	1A	Chri-	Ky-	Chri-	1c	Chri-	Ky-	Chri-	1f	Chri-	ky-	Ch(ri-
=4-	=4-	=4-	=4-	=4-	=4-	=4-	=4-	=4-	=4-	=4-	=4-	=4-	=4-	=4-	=4-
2BB-/	.	-ri-	-ste	2B-y\	.	-ri-	-ste	2d\	.	-ri-	-ste	2f\	-ſte	-ri-	-st)e
2FF/	-ste	-e	ex-	2A/	-ste	-e	ex-	2c\	-ste	-e	ex-	2f\	e-	-e	ex-
1GG	e-	e-	-au-	1.G	e-	e-	-au-	1B-	e-	e-	-au-	1d	.	e-	-au-
=5-	=5-	=5-	=5-	=5-	=5-	=5-	=5-	=5-	=5-	=5-	=5-	=5-	=5-	=5-	=5-
1D	-lei-	-lei-	-di	.	.	.	.	1A	-lei-	-lei-	-di	1d	-lei-	-lei-	-di
!	!	!	!	!LO:TX:t=P:problem=# below	!	!	!	!	!	!	!	!	!	!	!
.	.	.	.	2F#X/	-lei-	-lei-	-di	.	.	.	.	.	.	.	.
!LO:TX:t=P:problem=kreska pseudotaktowa	!	!	!	!LO:TX:t=P:problem=kreska pseudotaktowa	!	!	!	!LO:TX:t=P:problem=kreska pseudotaktowa	!	!	!	!LO:TX:t=P:problem=kreska pseudotaktowa	!	!	!
1GG;>	-son	-son	nos	1G;>	-son	-son.	nos	1G;>	-son	-son	nos	1d;>	-ſon.	-ſon	nos.
=6-	=6-	=6-	=6-	=6-	=6-	=6-	=6-	=6-	=6-	=6-	=6-	=6-	=6-	=6-	=6-
00BB-/	Pater de	Fili redemptor etc...	Agn(us) Dei qui etc:	00B-\	Pater de	Fili redemptor et:	Agn(us) Dei qui tollis et.	00d\	Pater de	Fili redemptor etc	Agn(us) Dei qui tollis etc:	00f\	Pater de	Fili	Agn(us) Dei q(ui) tollis pec-
=7-	=7-	=7-	=7-	=7-	=7-	=7-	=7-	=7-	=7-	=7-	=7-	=7-	=7-	=7-	=7-
2E-X\	cae-	.	.	2G/	cae-	.	.	2e-X\	cae-	.	.	2g\	cae-	re-	-ca-
2BB-/	-lis	.	.	2B-\	-lis	.	.	2d\	-lis	.	.	2f\	-lis	-demp-	-ta
1F	De-	.	.	(>2B-\	De-	.	.	1c	De-	.	.	1f	De-	-tor	mun-
.	.	.	.	2A/)	.	.	.	.	.	.	.	.	.	.	.
=8-	=8-	=8-	=8-	=8-	=8-	=8-	=8-	=8-	=8-	=8-	=8-	=8-	=8-	=8-	=8-
!LO:TX:t=P:problem=kreska pseudotaktowa	!	!	!	!LO:TX:t=P:problem=kreska pseudotaktowa	!	!	!	!LO:TX:t=P:problem=kreska pseudotaktowa	!	!	!	!LO:TX:t=P:problem=kreska pseudotaktowa	!	!	!
1BB-;>	-(us)	.	.	1B-;>	-(us)	.	.	1B-;>	-(us)	.	.	1f;>	-us	.	-di
1.BB-	mi-	.	par-	1.B-	mi-	.	par-	1.d	mi-	mi-	par-	1.f	Mi-	.	Par-
=9-	=9-	=9-	=9-	=9-	=9-	=9-	=9-	=9-	=9-	=9-	=9-	=9-	=9-	=9-	=9-
.	.	.	.	.	.	.	.	.	.	.	.	.	.	.	.
2BB-/	-se-	.	-ce	2B-\	-se-	.	-ce	2d\	-se-	-se-	-ce	2f\	-ſe-	.	-ce
2C/	-re-	.	no-	2A/	-re-	.	no-	2c\	-re-	-re-	no-	2e-X\	-re-	.	no-
2G\	-re	.	-bis	2G/	-re	.	-bis	2B-\	-re	-re	-bis	2d\	-re	.	-bis
=10-	=10-	=10-	=10-	=10-	=10-	=10-	=10-	=10-	=10-	=10-	=10-	=10-	=10-	=10-	=10-
1D	no-	.	D(o-	2G/	no-	.	D(o)-	1A	no-	no-	D(o-	1d	no-	.	D(o-
!	!	!	!	!LO:TX:t=P:problem=# below	!	!	!	!	!	!	!	!	!	!	!
.	.	.	.	2F#X/	.	.	.	.	.	.	.	.	.	.	.
!LO:TX:t=P:problem=kreska pseudotaktowa	!	!	!	!LO:TX:t=P:problem=kreska pseudotaktowa	!	!	!	!LO:TX:t=P:problem=kreska pseudotaktowa	!	!	!	!LO:TX:t=P:problem=kreska pseudotaktowa	!	!	!
1GG;>	-bis	.	-mi)ne.	1G;>	-bis	.	-(mi)ne.	1G;>	-bis	-bis	-mi)ne.	1d;>	-bis	.	-mi)ne
=11-	=11-	=11-	=11-	=11-	=11-	=11-	=11-	=11-	=11-	=11-	=11-	=11-	=11-	=11-	=11-
1G	San-	Sancta	.	1G	San-	Sancta	.	1B-	San-	Sancta	.	1d	San-	Sancta	Ma-
2F\	-cta	De-	.	2A/	-cta	De-	.	2c\	-cta	De-	.	2f\	-cta	De-	.
2D/	Ma-	-i	.	2B-\	Ma-	-i	.	2d\	Ma-	-i	.	2f\	Ma-	-i	-ter
=12-	=12-	=12-	=12-	=12-	=12-	=12-	=12-	=12-	=12-	=12-	=12-	=12-	=12-	=12-	=12-
*	*	*	*	*	*	*	*	*lig	*	*	*	*	*	*	*
1C	-ri-	Ge-	.	1.c	-ri-	Ge-	.	1e-X	-ri-	Ge-	.	0g	-ri-	ge-	Chri-
1G	.	.	.	.	.	.	.	1d	.	.	.	.	.	.	.
.	.	.	.	2B-\	.	.	.	.	.	.	.	.	.	.	.
*	*	*	*	*	*	*	*	*Xlig	*	*	*	*	*	*	*
=13-	=13-	=13-	=13-	=13-	=13-	=13-	=13-	=13-	=13-	=13-	=13-	=13-	=13-	=13-	=13-
!LO:TX:t=P:problem=kreska pseudotaktowa	!	!	!	!LO:TX:t=P:problem=kreska pseudotaktowa	!	!	!	!LO:TX:t=P:problem=kreska pseudotaktowa	!	!	!	!LO:TX:t=P:problem=kreska pseudotaktowa	!	!	!
1C;>	-a	-nitrix etc...	.	1c;>	-a	-nitrix etc:	.	1c;>	-a	-nitrix	.	1eny;>	-a	-nitrix	-ſti
1F	O-	.	.	1A	O-	.	.	1c	O-	o-	.	1f	O-	.	O-
=14-	=14-	=14-	=14-	=14-	=14-	=14-	=14-	=14-	=14-	=14-	=14-	=14-	=14-	=14-	=14-
2BB-/	-ra	.	.	2B-\	-ra	.	.	2d\	-ra	-ra	.	2f\	-ra	.	-ra
!	!	!	!	!	!	!	!	!	!	!	!	!LO:N:vis=2.	!	!	!
2F\	pro	.	.	2A/	pro	.	.	2c\	pro	pro	.	2f\	pro	.	p(ro)
*	*	*	*	*	*	*	*	*lig	*	*	*	*	*	*	*
1G	no-	.	.	1.G	no-	.	.	1B-	no-	no-	.	0d	no-	.	no-
=15-	=15-	=15-	=15-	=15-	=15-	=15-	=15-	=15-	=15-	=15-	=15-	=15-	=15-	=15-	=15-
1D	.	.	.	.	.	.	.	1A	.	.	.	.	.	.	.
!	!	!	!	!LO:TX:t=P:problem=# below	!	!	!	!	!	!	!	!	!	!	!
.	.	.	.	2F#X/	.	.	.	.	.	.	.	.	.	.	.
*	*	*	*	*	*	*	*	*Xlig	*	*	*	*	*	*	*
0GG;>	-bis	.	.	0G;>	-bis	.	.	0G;>	-bis	-bis	.	0d;;	-bis.	.	-bis.
==	==	==	==	==	==	==	==	==	==	==	==	==	==	==	==
*-	*-	*-	*-	*-	*-	*-	*-	*-	*-	*-	*-	*-	*-	*-	*-
!!!system-decoration: [(s1,s2,s3,s4)]
!!!RDF**kern: > = above
!!!RDF**kern: < = below
!!!EED: Mateusz Mrugas
!!!EEV: 2021-03-20
!!!ENC: Kamil Watkowski
!!!END: 2021-03-05
